frontend/app/img/tabsContainer.svg

<?xml version="1.0" standalone="no"?>
<!DOCTYPE svg PUBLIC "-//W3C//DTD SVG 1.1//EN" "http://www.w3.org/Graphics/SVG/1.1/DTD/svg11.dtd">
<svg width="100%" height="100%" viewBox="0 0 50 20" version="1.1" xmlns="http://www.w3.org/2000/svg" xmlns:xlink="http://www.w3.org/1999/xlink" xml:space="preserve" style="fill-rule:evenodd;clip-rule:evenodd;stroke-linejoin:round;stroke-miterlimit:1.41421;">
    <path d="M0.9999,0.0002L0.9999,1.0002L-0.0001,1.0002L-0.0001,7.0002L0.9999,7.0002L0.9999,1.0002L15.9999,1.0002L15.9999,0.0002L0.9999,0.0002ZM15.9999,1.0002L15.9999,5.9992L17.9999,5.9992L17.9999,4.9992L16.9999,4.9992L16.9999,1.0002L15.9999,1.0002ZM48.9999,4.9992L48.9999,7.0002L50.0009,7.0002L50.0009,4.9992L48.9999,4.9992ZM43.9999,5.9992L46.9999,5.9992L46.9999,4.9992L43.9999,4.9992L43.9999,5.9992ZM38.9999,5.9992L42.0009,5.9992L42.0009,4.9992L38.9999,4.9992L38.9999,5.9992ZM33.9999,5.9992L36.9999,5.9992L36.9999,4.9992L33.9999,4.9992L33.9999,5.9992ZM28.9999,5.9992L32.0009,5.9992L32.0009,4.9992L28.9999,4.9992L28.9999,5.9992ZM24.9999,5.9992L26.9999,5.9992L26.9999,4.9992L24.9999,4.9992L24.9999,5.9992ZM19.9999,5.9992L23.0009,5.9992L23.0009,4.9992L19.9999,4.9992L19.9999,5.9992ZM48.9999,11.0002L50.0009,11.0002L50.0009,9.0002L48.9999,9.0002L48.9999,11.0002ZM-0.0001,11.0002L0.9999,11.0002L0.9999,9.0002L-0.0001,9.0002L-0.0001,11.0002ZM48.9999,16.0002L50.0009,16.0002L50.0009,12.9992L48.9999,12.9992L48.9999,16.0002ZM-0.0001,16.0002L0.9999,16.0002L0.9999,12.9992L-0.0001,12.9992L-0.0001,16.0002ZM-0.0001,18.0002L-0.0001,20.0002L2.9999,20.0002L2.9999,19.0002L0.9999,19.0002L0.9999,18.0002L-0.0001,18.0002ZM49.0199,18.0952L49.0199,20.0002L50.0009,20.0002L50.0009,18.0952L49.0199,18.0952ZM43.9999,20.0002L46.9999,20.0002L46.9999,19.0002L43.9999,19.0002L43.9999,20.0002ZM38.9999,20.0002L42.0009,20.0002L42.0009,19.0002L38.9999,19.0002L38.9999,20.0002ZM33.9999,20.0002L36.9999,20.0002L36.9999,19.0002L33.9999,19.0002L33.9999,20.0002ZM28.9999,20.0002L32.0009,20.0002L32.0009,19.0002L28.9999,19.0002L28.9999,20.0002ZM24.9999,20.0002L26.9999,20.0002L26.9999,19.0002L24.9999,19.0002L24.9999,20.0002ZM19.9999,20.0002L23.0009,20.0002L23.0009,19.0002L19.9999,19.0002L19.9999,20.0002ZM14.9999,20.0002L17.9999,20.0002L17.9999,19.0002L14.9999,19.0002L14.9999,20.0002ZM9.9999,20.0002L12.9999,20.0002L12.9999,19.0002L9.9999,19.0002L9.9999,20.0002ZM5.0009,20.0002L8.0009,20.0002L8.0009,19.0002L5.0009,19.0002L5.0009,20.0002Z" style="fill:rgb(66,66,81);fill-rule:nonzero;"/>
    <path d="M19,1L33,1L33,0L19,0L19,1ZM33,5L34,5L34,1L33,1L33,5ZM18,5L19,5L19,1L18,1L18,5Z" style="fill:rgb(134,134,149);fill-rule:nonzero;"/>
</svg>

<svg viewBox="0 0 50 20" xmlns="http://www.w3.org/2000/svg" fill-rule="evenodd" clip-rule="evenodd" stroke-linejoin="round" stroke-miterlimit="1.414"><path d="M1 0v1H0v6h1V1h15V0H1zm15 1v5h2V5h-1V1h-1zm33 4v2h1V5h-1zm-5 1h3V5h-3v1zm-5 0h3V5h-3v1zm-5 0h3V5h-3v1zm-5 0h3V5h-3v1zm-4 0h2V5h-2v1zm-5 0h3V5h-3v1zm29 5h1V9h-1v2zM0 11h1V9H0v2zm49 5h1v-3h-1v3zM0 16h1v-3H0v3zm0 2v2h3v-1H1v-1H0zm49.02.095V20H50v-1.905h-.98zM44 20h3v-1h-3v1zm-5 0h3v-1h-3v1zm-5 0h3v-1h-3v1zm-5 0h3v-1h-3v1zm-4 0h2v-1h-2v1zm-5 0h3v-1h-3v1zm-5 0h3v-1h-3v1zm-5 0h3v-1h-3v1zm-5 0h3v-1H5v1z" fill="#424251" fill-rule="nonzero"/><path d="M19 1h14V0H19v1zm14 4h1V1h-1v4zM18 5h1V1h-1v4z" fill="#868695" fill-rule="nonzero"/></svg>
